X:162
M:4/4
L:1/8
K:D
| A2eA Acec | ABcd eBdB | B2dB eBdB | BcdB GBdG | 
| a2eb ageg | agbg agef | gedc BGGd | gfga bged | 
edeg ageb | bgaf gedB | dGde gage | dBGA BAA2 :|| 

